!!!COM: John Williams
!!!OTL: Jedi Steps
!!!GAW: Star Wars: Episode 7
!!!ODT: 2015
!!!OCL: Frank Lehman
!!!ENC: Claire Arthur
!!!ENC2: John McNamara
**kern	**harte	**harm	**altharm	**pedal	**cadence
*clefF4	*	*	*	*	*
*k[b-e-]	*k[b-e-]	*k[b-e-]	*	*	*
*g:	*g:	*g:	*	*	*
*M12/8	*M12/8	*M12/8	*	*	*
*MM62	*MM62 	*MM62 	* 	*
=1-	=1-	=1-	=1-	=1-	=1-
4.d	G:min	i	.	.	.
2.G	.	.	.	.	.
8.dL	.	.	.	.	.
8.gJ	.	.	.	.	.
=2	=2	=2	=2	=2	=2
4.e-	Eb/3	VIb	.	.	.
2.G	.	.	.	.	.
8.e-L	.	.	.	.	.
8.gJ	.	.	.	.	.
=3	=3	=3	=3	=3	=3
4.d	G:min	i	.	.	.
4.G	.	.	.	.	.
[4.A	G:sus4(2)	.	.	.	.
8.AL]	.	.	.	.	.
8.DJ	.	.	.	.	.
=4	=4	=4	=4	=4	=4
2.B-	G:min	.	.	.	.
2.C	G:sus2	.	.	.	.
=5	=5	=5	=5	=5	=5
4.D	G:min	.	.	.	//
[2.GG	.	.	.	.	.
4.GG_	.	.	.	.	.
=6	=6	=6	=6	=6	=6
1.GG]	.	.	.	.	.
*clefG2	*	*	*	*	*
=7	=7	=7	=7	=7	=7
4.dd	G:min	i	.	.	.
2.g	.	.	.	.	.
8.ddL	.	.	.	.	.
8.ggJ	.	.	.	.	.
=8	=8	=8	=8	=8	=8
4.ee-	Eb/3	VIb	.	.	.
2.g	.	.	.	.	.
8.ee-L	.	.	.	.	.
8.ggJ	.	.	.	.	.
=9	=9	=9	=9	=9	=9
4.dd	G:min	i	.	.	.
4.g	.	.	.	.	.
[4.a	G:sus4(2)	.	.	.	.
8.aL]	.	.	.	.	.
8.b-J	.	.	.	.	.
=10	=10	=10	=10	=10	=10
4.cc	G:min	.	.	.	.
4.dd	.	.	.	.	.
4.bb-	G:sus2	.	.	.	.
4.ff#	D:7/4	V7	.	.	.
=11	=11	=11	=11	=11	=11
4.ddd	G:min	i	.	.	IAC
2.gg	.	.	.	.	]]
4.r	.	.	.	.	.
=	=	=	=	=	=
*-	*-	*-	*-	*-	*-
